X: 1
T: Kyrkpolska
R: polska
N: Good for Orepolska
O: Leif Alpsj\"o
Z: John Chambers <jc@trillian.mit.edu>
M: 3/4
L: 1/16
K: G
|: "G"[D3G,3]e d4 B4 | "D7"~B2AB c4 A4 \
| "D7"D3f f2e2 d2c2 |1 "D7"~c2Bc e2d2 B2G2 :|2,4 "D7"D2FA "G"G8 :|
|: "G"{A}B3d g4- g3f | "C"f3c e4- e4 \
| "D7"DFAc e2d2 c2A2 |1,3 "G"DGBd e2d2 B2G2 :|2,4 "D7"D2FA "G"G8 :|
